X: 15343
T: Gladstone, The
R: reel
M: 4/4
K: Gmajor
dc|:BGcA defg|GGBG AFDc|BGcA defg|1 dBcA G3c:|2 dBcA G3d||
g4 fadg|e3g dGBd|cAdc BGcB|A3G FAdf|
geag fadg|e3g dgBd|cAdc Bdg2|dBcA G3c||

